qml/pages/assets/asset2/0.svg

<?xml version="1.0" encoding="UTF-8" standalone="no"?>
<svg
   xmlns:dc="http://purl.org/dc/elements/1.1/"
   xmlns:cc="http://creativecommons.org/ns#"
   xmlns:rdf="http://www.w3.org/1999/02/22-rdf-syntax-ns#"
   xmlns:svg="http://www.w3.org/2000/svg"
   xmlns="http://www.w3.org/2000/svg"
   xmlns:sodipodi="http://sodipodi.sourceforge.net/DTD/sodipodi-0.dtd"
   xmlns:inkscape="http://www.inkscape.org/namespaces/inkscape"
   height="500"
   width="750"
   version="1.1"
   id="svg817"
   sodipodi:docname="horse4v.svg"
   inkscape:version="0.92.3 (2405546, 2018-03-11)">
  <metadata
     id="metadata823">
    <rdf:RDF>
      <cc:Work
         rdf:about="">
        <dc:format>image/svg+xml</dc:format>
        <dc:type
           rdf:resource="http://purl.org/dc/dcmitype/StillImage" />
        <dc:title></dc:title>
      </cc:Work>
    </rdf:RDF>
  </metadata>
  <defs
     id="defs821" />
  <sodipodi:namedview
     pagecolor="#ffffff"
     bordercolor="#666666"
     borderopacity="1"
     objecttolerance="10"
     gridtolerance="10"
     guidetolerance="10"
     inkscape:pageopacity="0"
     inkscape:pageshadow="2"
     inkscape:window-width="1853"
     inkscape:window-height="1025"
     id="namedview819"
     showgrid="false"
     inkscape:zoom="2.8284271"
     inkscape:cx="181.21366"
     inkscape:cy="355.47422"
     inkscape:window-x="67"
     inkscape:window-y="27"
     inkscape:window-maximized="1"
     inkscape:current-layer="svg817" />
  <path
     style="fill:#b56632;stroke:none;fill-opacity:1"
     d="m 210.42655,45.023696 -5.20587,22.645143 -14.74748,8.952903 -17.11715,13.099822 -11.59658,9.745261 -15.15106,10.930095 -10.41173,5.59834 -10.45616,11.4929 -0.48874,10.18956 4.18394,8.63448 16.58768,3.5545 13.55895,-4.51717 15.33619,-1.5551 10.92639,-2.55479 12.11123,-4.92447 14.54383,32.28672 14.29577,32.50888 13.70335,33.69372 3.03984,27.76956 5.07443,19.51274 9.22133,14.7734 5.19106,27.9917 2.22897,26.80688 1.41069,32.21268 2.59553,25.10367 -0.0704,32.80509 -1.81243,11.95942 -12.75456,19.60531 13.3118,-0.53688 16.07302,0.22215 0.52807,-15.74533 4.0826,-13.37567 0.46375,-22.012 -0.36054,-35.2951 1.41671,-25.81642 4.01826,-29.71341 3.33604,-29.3987 27.62515,3.77665 34.42222,-1.27091 36.79187,-2.45576 42.71605,-10.15717 c 9.71213,-1.71486 19.78858,-5.38915 37.97671,-11.34202 l 18.54404,26.46762 13.8047,26.46763 18.72316,41.67932 -4.56023,59.05055 -2.87251,17.38074 -10.57396,20.93523 13.5085,-0.19114 17.65542,-0.78358 -2.39117,-20.79314 4.12541,-23.75522 3.51151,-22.62895 4.06082,-18.0067 4.35704,-17.71049 -12.63191,-34.03298 0.40127,-24.5543 8.80017,-21.7093 1.69117,-27.63348 3.43804,46.33274 c 3.97013,29.2294 3.27939,26.93905 4.62288,40.40858 l 1.66079,38.0389 1.66079,34.4844 23.16756,-1.23262 12.50405,-6.56438 -13.2028,-109.39653 -11.34074,-38.11058 -19.63458,-38.70299 -16.63072,-16.48262 -14.26105,-11.74328 -32.607,-13.05728 -32.00256,-0.90067 -30.2253,6.80074 -30.85383,1.72915 -23.15237,1.1367 -18.67319,0.58037 -15.7111,-0.012 L 328.00379,187.7786 312.8851,174.73335 291.36554,153.21381 276.36258,134.06392 258.5012,111.46321 239.20322,88.314542 229.63939,74.825954 218.2983,60.744949 Z"
     id="path815"
     inkscape:connector-curvature="0"
     sodipodi:nodetypes="cccccccccccccccccccccccccccccccccccccccccccccccccccccccccccccccccccccccccccccccccccccc"
     inkscape:label="horse_01" />
  <path
     d="m 409.9526,209.86372 -7.14605,37.17421 -5.18365,14.81041 -14.73636,12.14455 -17.10604,5.03554 -13.05169,-0.59242 -13.05168,-0.59242 c 0.16945,1.22075 -6.86724,-4.65051 -9.12278,-8.33564 -2.25554,-3.68513 -2.69201,-10.51588 -4.72497,-10.02927 l -1.18484,-13.92182 v -25.91825 l 4.44313,-22.43779 9.88782,-10.59501 8.99548,4.15248 18.99436,1.18483 20.17921,-2.36967 17.99467,-1.77725 27.88062,-10.07108 9.51571,1.77724 1.77725,12.88507 -20.14218,11.70024"
     id="saddle_01"
     inkscape:connector-curvature="0"
     sodipodi:nodetypes="cccccccsccccccccccccc"
     style="display:inline" />
  <path
     style="fill:#375833;fill-opacity:1"
     d="m 269.12285,407.04162 -0.27621,-3.31456 15.16197,11.31139 0.27163,5.82077 4.981,0.41487 0.0484,5.9242 -4.97106,0.2901 -0.13437,4.97686 4.69568,0.004 -0.0689,5.75149 -4.2389,0.47206 -0.88253,12.09581 -15.77892,-0.22517 1.26,-14.16912 0.15081,-12.4577 v -7.99173 z"
     id="rect835"
     inkscape:connector-curvature="0"
     sodipodi:nodetypes="ccccccccccccccccc" />
  <path
     style="fill:#375833;fill-opacity:1"
     d="m 526.56125,427.60401 0.21765,-10.47255 17.7395,0.10472 -1.67561,12.73645 -2.40868,13.55309 c -4.38648,5.05562 -8.24304,7.46715 -12.91904,0.8577 -2.95024,-2.87377 -0.70526,-7.10828 -1.47744,-10.59718 l -2.50068,0.10325 0.72034,-6.53809 z"
     id="rect837"
     inkscape:connector-curvature="0"
     sodipodi:nodetypes="cccccccccc" />
  <path
     style="fill:#221309;fill-opacity:1"
     d="m 139.69355,114.52998 9.55802,12.07645 27.61593,-11.95888 8.40507,-5.09142 -13.57211,-17.723525 4.32284,-3.0933 14.3348,17.907565 31.83362,-40.583669 3.88909,4.596195 c -0.23354,1.640825 -1.48891,-1.640826 0,0 l -31.15493,39.059774 -4.14358,3.00519 -5.49871,2.99227 12.67257,20.59854 -5.29216,2.52431 -13.37842,-19.9069 -26.62627,13.0783 10.33134,11.60115 29.61276,26.6993 28.06943,16.61009 34.2255,0.11794 68.93454,-2.27214 4.17091,3.01138 -107.67072,3.76334 -33.47565,-19.49723 -31.72219,-25.64405 -22.22533,-26.32959 z"
     id="rect841"
     inkscape:connector-curvature="0"
     sodipodi:nodetypes="cccccccccccccccccccccccccccc" />
</svg>

<svg
   height="500"
   width="750"
>
  <path
     style="fill:#b56632;fill-opacity:1;stroke:none"
     d="M 210.42655,45.023696 205.22068,67.668839 190.4732,76.621742 173.35605,89.721564 161.75947,99.466825 146.60841,110.39692 136.19668,115.99526 125.74052,127.48816 125.25178,137.67772 129.43572,146.3122 146.0234,149.8667 159.58235,145.34953 174.91854,143.79443 185.84493,141.23964 197.95616,136.31517 212.49999,168.60189 226.79576,201.11077 240.49911,234.80449 243.53895,262.57405 248.61338,282.08679 257.83471,296.86019 263.02577,324.85189 265.25474,351.65877 266.66543,383.87145 269.26096,408.97512 269.19056,441.78021 267.37813,453.73963 254.62357,473.34494 267.93537,472.80806 284.00839,473.03021 284.53646,457.28488 288.61906,443.90921 289.08281,421.89721 288.72227,386.60211 290.13898,360.78569 294.15724,331.07228 297.49328,301.67358 325.11843,305.45023 359.54065,304.17932 396.33252,301.72356 439.04857,291.56639 C 448.7607,289.85153 458.83715,286.17724 477.02528,280.22437 L 495.56932,306.69199 509.37402,333.15962 528.09718,374.83894 523.53695,433.88949 520.66444,451.27023 510.09048,472.20546 523.59898,472.01432 541.2544,471.23074 538.86323,450.4376 542.98864,426.68238 546.50015,404.05343 550.56097,386.04673 554.91801,368.33624 542.2861,334.30326 542.68737,309.74896 551.48754,288.03966 553.17871,260.40618 556.61675,306.73892 C 560.58688,335.96832 559.89614,333.67797 561.23963,347.1475 L 562.90042,385.1864 564.56121,419.6708 587.72877,418.43818 600.23282,411.8738 587.03002,302.47727 575.68928,264.36669 556.0547,225.6637 539.42398,209.18108 525.16293,197.4378 492.55593,184.38052 460.55337,183.47985 430.32807,190.28059 399.47424,192.00974 376.32187,193.14644 357.64868,193.72681 341.93758,193.71481 328.00379,187.7786 312.8851,174.73335 301.22142,163.06968 291.36554,153.21381 276.36258,134.06392 258.5012,111.46321 239.20322,88.314542 229.63939,74.825954 218.2983,60.744949 Z"
     id="00_horse"
     inkscape:connector-curvature="0"
     sodipodi:nodetypes="ccccccccccccccccccccccccccccccccccccccccccccccccccccccccccccccccccccccccccccccccccccccc"
     inkscape:label="Horse" />
</svg>
